X:12044
T:North Britons,The. HSJJ.130
M:2/4
L:1/8
Q:200
S:HSJ Jackson,Wyresdale,Lancs.1823
R:Scots Measure
O:England
A:Lancashire
N:Contains illegible dance instructions.
H:1823
Z:vmp.Chris Partington.
K:F
c|c>f d/c/B/A/|B>d fd|cd cF|EG Gc|c>f d/c/B/A/|B>df>d|efcb|aff:|!
|:f|cfaf|bagf|d<gg>f|egga|cfaf|bagf|ecde|f2f:|]
